neru-dark-classic/large/applets/org.kde.plasma.pager.svg

<svg xmlns="http://www.w3.org/2000/svg" viewBox="0 0 256 256" id="svg2" version="1.1"><defs id="defs4"><style id="current-color-scheme" type="text/css">.ColorScheme-Text{color:#f2f2f2}.ColorScheme-Highlight{color:#3daee9}</style></defs><path d="M16 10h224c3.324 0 6 2.676 6 6v224c0 3.324-2.676 6-6 6H16c-3.324 0-6-2.676-6-6V16c0-3.324 2.676-6 6-6z" id="rect4240" fill="currentColor" fill-opacity=".5" stroke="none" color="#31363b"/><path d="M16 12h224c2.216 0 4 1.784 4 4v224c0 2.216-1.784 4-4 4H16c-2.216 0-4-1.784-4-4V16c0-2.216 1.784-4 4-4z" id="rect4238" fill="currentColor" fill-opacity="1" stroke="none" color="#31363b"/><rect id="rect5492" width="92" height="58" x="140" y="99" rx="0" ry="0" opacity=".4" fill="#1d99f3" fill-opacity="1" stroke="none"/><path class="ColorScheme-Highlight" d="M140 99v58h92V99h-92zm1 1h90v56h-90v-56z" id="rect5492-1" fill="currentColor" fill-opacity="1" stroke="none"/><path class="ColorScheme-Highlight" id="rect5512" fill="currentColor" fill-opacity=".4" stroke="none" d="M155 103h35v26h-35z"/><path class="ColorScheme-Highlight" id="rect5514" fill="currentColor" fill-opacity=".4" stroke="none" d="M193 111h35v42h-35z"/><path class="ColorScheme-Highlight" id="rect5516" fill="currentColor" fill-opacity=".4" stroke="none" d="M144 132h17v21h-17z"/><path class="ColorScheme-Text" d="M24 30v58h92V30H24zm116 0v58h92V30h-92zM24 99v58h92V99H24zm0 69v58h92v-58H24zm116 0v58h92v-58h-92z" id="rect5492-9-6-3" fill="currentColor" fill-opacity=".4" stroke="none"/><path class="ColorScheme-Text" d="M24 30v58h92V30H24zm116 0v58h92V30h-92zM25 31h90v56H25V31zm116 0h90v56h-90V31zM24 99v58h92V99H24zm1 1h90v56H25v-56zm-1 68v58h92v-58H24zm116 0v58h92v-58h-92zm-115 1h90v56H25v-56zm116 0h90v56h-90v-56z" id="rect5492-1-0-2-0" color="#f2f2f2" opacity="1" fill="currentColor" fill-opacity="1" stroke="none"/><path id="rect5936" class="ColorScheme-Text" fill="currentColor" fill-opacity=".4" stroke="none" d="M28 172h67v50H28z"/><path id="rect5938" class="ColorScheme-Text" fill="currentColor" fill-opacity=".4" stroke="none" d="M70 177h42v45H70z"/><path id="rect6003" class="ColorScheme-Text" fill="currentColor" fill-opacity=".4" stroke="none" d="M153 34h51v50h-51z"/><path id="rect6005" class="ColorScheme-Text" fill="currentColor" fill-opacity=".4" stroke="none" d="M89 35h22v20H89z"/><path id="rect6007" class="ColorScheme-Text" fill="currentColor" fill-opacity=".4" stroke="none" d="M31 51h35v31H31z"/><path id="rect6009" class="ColorScheme-Text" fill="currentColor" fill-opacity=".4" stroke="none" d="M44 36h39v30H44z"/><path id="rect6011" class="ColorScheme-Text" fill="currentColor" fill-opacity=".4" stroke="none" d="M33 106h79v47H33z"/><path id="rect6013" class="ColorScheme-Text" fill="currentColor" fill-opacity=".4" stroke="none" d="M182 39h44v35h-44z"/><path id="rect6015" class="ColorScheme-Text" fill="currentColor" fill-opacity=".4" stroke="none" d="M145 47h67v36h-67z"/></svg>

<?xml version="1.0" encoding="UTF-8" standalone="no"?>
<svg
   xmlns:dc="http://purl.org/dc/elements/1.1/"
   xmlns:cc="http://creativecommons.org/ns#"
   xmlns:rdf="http://www.w3.org/1999/02/22-rdf-syntax-ns#"
   xmlns:svg="http://www.w3.org/2000/svg"
   xmlns="http://www.w3.org/2000/svg"
   xmlns:sodipodi="http://sodipodi.sourceforge.net/DTD/sodipodi-0.dtd"
   xmlns:inkscape="http://www.inkscape.org/namespaces/inkscape"
   viewBox="0 0 256 256"
   id="svg2"
   version="1.1"
   inkscape:version="0.91 r13725"
   sodipodi:docname="org.kde.plasma.pager.svg">
  <metadata
     id="metadata10">
    <rdf:RDF>
      <cc:Work
         rdf:about="">
        <dc:format>image/svg+xml</dc:format>
        <dc:type
           rdf:resource="http://purl.org/dc/dcmitype/StillImage" />
        <dc:title></dc:title>
      </cc:Work>
    </rdf:RDF>
  </metadata>
  <sodipodi:namedview
     pagecolor="#ffffff"
     bordercolor="#666666"
     borderopacity="1"
     objecttolerance="10"
     gridtolerance="10"
     guidetolerance="10"
     inkscape:pageopacity="0"
     inkscape:pageshadow="2"
     inkscape:window-width="1920"
     inkscape:window-height="1050"
     id="namedview8"
     showgrid="false"
     inkscape:zoom="3.6875"
     inkscape:cx="124.11069"
     inkscape:cy="118.09436"
     inkscape:window-x="0"
     inkscape:window-y="30"
     inkscape:window-maximized="1"
     inkscape:current-layer="svg2" />
  <defs
     id="defs4">
    <style
       id="current-color-scheme"
       type="text/css">
      .ColorScheme-Text {
        color:#f2f2f2;
      }
      .ColorScheme-Background {
        color:#31363b;
      }
      .ColorScheme-Highlight {
        color:#3daee9;
      }
      .ColorScheme-ViewText {
        color:#31363b;
      }
      .ColorScheme-ViewBackground {
        color:#314045;
      }
      .ColorScheme-ViewHover {
        color:#93cee9;
      }
      .ColorScheme-ViewFocus{
        color:#3daee9;
      }
      .ColorScheme-ButtonText {
        color:#31363b;
      }
      .ColorScheme-ButtonBackground {
        color:#31363b;
      }
      .ColorScheme-ButtonHover {
        color:#93cee9;
      }
      .ColorScheme-ButtonFocus{
        color:#3daee9;
      }
      </style>
  </defs>
  <path
     style="fill:currentColor;fill-opacity:0.5;stroke:none"
     d="m 16,10 224,0 c 3.324,0 6,2.676 6,6 l 0,224 c 0,3.324 -2.676,6 -6,6 l -224,0 c -3.324,0 -6,-2.676 -6,-6 L 10,16 c 0,-3.324 2.676,-6 6,-6 z"
     class="ColorScheme-ButtonText"
     id="rect4240" />
  <path
     style="fill:currentColor;fill-opacity:1;stroke:none"
     d="m 16,12 224,0 c 2.216,0 4,1.784 4,4 l 0,224 c 0,2.216 -1.784,4 -4,4 l -224,0 c -2.216,0 -4,-1.784 -4,-4 L 12,16 c 0,-2.216 1.784,-4 4,-4 z"
     class="ColorScheme-Background"
     id="rect4238" />
  <rect
     style="opacity:0.4;fill:#1d99f3;fill-opacity:1;stroke:none"
     id="rect5492"
     width="92"
     height="57.999969"
     x="140"
     y="99.000023"
     rx="0"
     ry="0" />
  <path
     style="fill:currentColor;fill-opacity:1;stroke:none" 
     class="ColorScheme-Highlight"
     d="m 140,99 0,58 92,0 0,-58 -92,0 z m 1,1 90,0 0,56 -90,0 0,-56 z"
     id="rect5492-1" />
  <rect
     style="fill:currentColor;fill-opacity:0.4;stroke:none" 
     class="ColorScheme-Highlight"
     id="rect5512"
     width="35"
     height="25.999987"
     x="155"
     y="103.00002" />
  <rect
     style="fill:currentColor;fill-opacity:0.4;stroke:none" 
     class="ColorScheme-Highlight"
     id="rect5514"
     width="35"
     height="42.00005"
     x="193"
     y="111.00002" />
  <rect
     style="fill:currentColor;fill-opacity:0.4;stroke:none" 
     class="ColorScheme-Highlight"
     id="rect5516"
     width="17"
     height="21.000029"
     x="144"
     y="132.00003" />
  <path
     style="fill:currentColor;fill-opacity:0.4;stroke:none" 
     class="ColorScheme-Text"
     d="M 24 30 L 24 88 L 116 88 L 116 30 L 24 30 z M 140 30 L 140 88 L 232 88 L 232 30 L 140 30 z M 24 99 L 24 157 L 116 157 L 116 99 L 24 99 z M 24 168 L 24 226 L 116 226 L 116 168 L 24 168 z M 140 168 L 140 226 L 232 226 L 232 168 L 140 168 z "
     id="rect5492-9-6-3" />
  <path
     style="color:#f2f2f2;opacity:1;fill:currentColor;fill-opacity:1;stroke:none"
     class="ColorScheme-Text"
     d="M 24 30 L 24 88 L 116 88 L 116 30 L 24 30 z M 140 30 L 140 88 L 232 88 L 232 30 L 140 30 z M 25 31 L 115 31 L 115 87 L 25 87 L 25 31 z M 141 31 L 231 31 L 231 87 L 141 87 L 141 31 z M 24 99 L 24 157 L 116 157 L 116 99 L 24 99 z M 25 100 L 115 100 L 115 156 L 25 156 L 25 100 z M 24 168 L 24 226 L 116 226 L 116 168 L 24 168 z M 140 168 L 140 226 L 232 226 L 232 168 L 140 168 z M 25 169 L 115 169 L 115 225 L 25 225 L 25 169 z M 141 169 L 231 169 L 231 225 L 141 225 L 141 169 z "
     id="rect5492-1-0-2-0" />
  <rect
     style="fill:currentColor;fill-opacity:0.4;stroke:none" 
     id="rect5936"
     width="67"
     height="50.000023"
     x="28"
     y="172.00003"
     class="ColorScheme-Text" />
  <rect
     style="fill:currentColor;fill-opacity:0.4;stroke:none" 
     id="rect5938"
     width="42"
     height="45"
     x="70"
     y="177.00003"
     class="ColorScheme-Text" />
  <rect
     style="fill:currentColor;fill-opacity:0.4;stroke:none" 
     id="rect6003"
     width="51"
     height="50.000023"
     x="153"
     y="34.000023"
     class="ColorScheme-Text" />
  <rect
     style="fill:currentColor;fill-opacity:0.4;stroke:none" 
     id="rect6005"
     width="22"
     height="20"
     x="89"
     y="35.000023"
     class="ColorScheme-Text" />
  <rect
     style="fill:currentColor;fill-opacity:0.4;stroke:none" 
     id="rect6007"
     width="35"
     height="31"
     x="31"
     y="51.000023"
     class="ColorScheme-Text" />
  <rect
     style="fill:currentColor;fill-opacity:0.4;stroke:none" 
     id="rect6009"
     width="39"
     height="30"
     x="44"
     y="36.000023"
     class="ColorScheme-Text" />
  <rect
     style="fill:currentColor;fill-opacity:0.4;stroke:none" 
     id="rect6011"
     width="79"
     height="47"
     x="33"
     y="106.00002"
     class="ColorScheme-Text" />
  <rect
     style="fill:currentColor;fill-opacity:0.4;stroke:none" 
     id="rect6013"
     width="44"
     height="35"
     x="182"
     y="39.000023"
     class="ColorScheme-Text" />
  <rect
     style="fill:currentColor;fill-opacity:0.4;stroke:none" 
     id="rect6015"
     width="67"
     height="36"
     x="145"
     y="47.000023"
     class="ColorScheme-Text" />
</svg>
